X:1
T:Capriccio No. 6
T:Capriccio No. 6 in D minor
T:Joseph Clemens Dall'Abaco (1710-1805) arr. Felix Scharpf 
T:from: "11 Capricci for Solo Cello" arranged for Solo Flute 
C:Dall'Abaco, Joseph
L:1/8
M:3/4
K:F
V:1 treble nm="Flöte" snm="Fl."
V:1
 z[Q:1/4=190]!mf! (defga) | .b(de).b(ce) | !tenuto!F(bag).a.c | !tenuto!=B(ag^f).g.^c | %4
 !tenuto!d(g=fe).f!tenuto!F | !tenuto!G(f_ede)!tenuto!A | !tenuto!B!>(!(_ed)(fga!>)! | %7
!mp! bagf=ed) |!<(! (^cdefga)!<)! |!mf! .b(de).b(ce) | !tenuto!F(bag).a.c | !tenuto!=B(ag^f).g.^c | %12
 !tenuto!d(g=fe).f.F | !tenuto!G.f.b.f.e!tenuto!G |!>(! !tenuto!F.e.a.e.d!tenuto!F!>)! | %15
!mp! (Ge)!>(!(Ad)(^ce)!>)! |!p! .d(BAGFE) | D6 :: z!mp! (a=b^c'd'e') | .f'(a=b).f'!tenuto!g.f' | %20
 !tenuto!e'(g'f'e'd'c') | (f'e'!<(!d'c'ba)!<)! |!mf! .^g.a.=b(ged) | !tenuto!c(eac'e')!tenuto!c | %24
 !tenuto!F(ae')(^c'd').^f |!>(! !tenuto!^g(d'e')(=bc')!tenuto!c!>)! |!mp! .d(c'_b)(de).b | %27
!<(! !tenuto!f(ba)(^ga).c!<)! | !tenuto!d(=be)(a=g)!mf!.d |!>(! .^c.e.g(bag)!>)! | %30
!mp! (^fa).c(_edc) | .B.d.g(f=ed) | .^c.e!<(!(AGFE)!<)! | !tenuto!D!mf!(defga) | %34
 .b(de).b!tenuto!C.b | !tenuto!F(efga=b) | .c'(e^f).c'!>(!!tenuto!D.c'!>)! | %37
 !tenuto!G!mp!(^f!>(!ga=b^c')!>)! |!p! .d'!<(!(^f^g).d'!tenuto!E.d'!<)! | %39
!mf! (d'!>(!=b).c'(e^f).c'!>)! |!mp! (c'a)(_bge).d | !tenuto!^c(baga).=c | %42
 !tenuto!=B!<(!(ag^fg).^c!<)! |!mf! !tenuto!d(e=fef).F | !tenuto!G(.f.b.f.e).G | %45
 !tenuto!F(.e.a.e.d).F | (Ge)(Ad)(^ce) |1 .d!>(!(BAGFE)!>)! |!mp! D6 :|2 %49
 .d"_rit."!>(!(B[Q:1/4=140]A[Q:1/4=110]G[Q:1/4=90]FE)!>)! |!mp! D6 |] %51

